X:93
%%vocalfont Baskerville10Pro 11
%%pagewidth 7.5in
T:Under and over
M:6/8
L:1/8
K:D Minor
%%score 1 2
V:1 clef-treble
V:2 clef-bass octave=-1
V:1
D|D2dc2B&x3G3|A3(G>F)E&F3^C3|(F>G)A (G>A)F&D3^C2D|
w:As I a-broad was walk-ing,* I heard* two lo-*vers
w:As in a mea-dow turn-ing,* Up on* a sum-*mer's 
V:2
z|D3E3|F3E3|D2FE2D|
V:1
E3C2C&^C3x3|D2d^c2d&x3G2F|e3A2A&E3F3|(B>c)d (d>e)^c&D3F2E|d3-d2&F3-F2:||
w:talk-ing One to an-o-ther speak-ing, Of lo-*vers' con-*stan-cy.*
w:morn-ing, I heard these lo-vers mourn-ing 'Cause of* love's cru-*el-ty.*
V:2
x3A3&A,3A2G|A3E2D&F3x3|^C3D3|G,3A,3|D,2A,D2:||
V:1
d&F|c2c ([Ac]>[GB])[FA]&G3x3|G2G (G>F)E&D3^C3|F>GA G>AF&D3^C2D|
w:For under and o-*ver, over and un-*der, Un-der and o-ver a
V:2
D|E3F3|B3A3|D2FE2D|
V:1
(E3C2)C&^C3x3|D2d^c2d&x3G2F|e3A2A&E3F3|(B>c)d (d>e)^c&D3F2E|[Fd]3-[Fd]2||
w:gain.* Quoth she, sweet-heart, I love thee, As mai-*dens should* love men.*
V:2
x3A3&A,3A2G|A3E2D&F3x3|^C3D3|G,3A,3|D,2A,D2||

